X: 3
T: Robbie Hannan's
M: 4/4
L: 1/8
R: reel
K: Dmaj
|: (3ABc |
dAAG FDFA | GBed cABc |[1 dAAG FDDg | fdec d2 :|
[2 dedA (3Bcd AG | FAEA DEFA ||
defg afdA | GBed cAAg |[1 fgaf dAGF | GBec dfag :|
[2 fdge afbg | fgec d2 ||
